ingang_type/165.svg

<?xml version="1.0" encoding="UTF-8" standalone="no"?>
<!-- Created with Inkscape (http://www.inkscape.org/) -->

<svg
   xmlns:dc="http://purl.org/dc/elements/1.1/"
   xmlns:cc="http://creativecommons.org/ns#"
   xmlns:rdf="http://www.w3.org/1999/02/22-rdf-syntax-ns#"
   xmlns:svg="http://www.w3.org/2000/svg"
   xmlns="http://www.w3.org/2000/svg"
   version="1.1"
   width="70.862503"
   height="43.875"
   id="svg2"
   xml:space="preserve"><metadata
     id="metadata8"><rdf:RDF><cc:Work
         rdf:about=""><dc:format>image/svg+xml</dc:format><dc:type
           rdf:resource="http://purl.org/dc/dcmitype/StillImage" /><dc:title></dc:title></cc:Work></rdf:RDF></metadata><defs
     id="defs6"><clipPath
       id="clipPath18"><path
         d="m 0,0 566.934,0 0,351 L 0,351 0,0 z"
         id="path20" /></clipPath></defs><g
     transform="matrix(1.25,0,0,-1.25,0,43.875)"
     id="g10"><path
       d="m 0.94799336,34.12776 49.86445064,0.189599 0,-3.791973 5.119164,0.189598 0,-25.9750176 -5.119164,-0.1895984 0,-3.7919736 -50.24364799,0.1895984 z"
       id="path3005"
       style="fill:#ffffff;fill-opacity:1;stroke:none" /><g
       transform="scale(0.1,0.1)"
       id="g12"><g
         id="g14"><g
           clip-path="url(#clipPath18)"
           id="g16"><path
             d="m 501.516,336.293 c 0,-9.594 0,-38.219 0,-38.219 0,0 39.937,0 50.691,0 0,-13.105 0,-231.9881 0,-245.1131 -10.754,0 -50.691,0 -50.691,0 0,0 0,-28.625 0,-38.2343 -14.114,0 -472.6879,0 -486.7738,0 0,13.7695 0,307.7894 0,321.5664 14.0859,0 472.6598,0 486.7738,0 z M 0,351.035 0,0 516.23,0 c 0,0 0,28.6211 0,38.2422 10.762,0 50.704,0 50.704,0 l 0,274.5778 c 0,0 -39.942,0 -50.704,0 0,9.59 0,38.215 0,38.215 l -516.23,0"
             id="path22"
             style="fill:#231f20;fill-opacity:1;fill-rule:nonzero;stroke:none" /><path
             d="M 7.375,7.36328 508.867,343.66 M 7.375,343.66 508.867,7.36328"
             id="path24"
             style="fill:none;stroke:#231f20;stroke-width:7.27552986;stroke-linecap:butt;stroke-linejoin:miter;stroke-miterlimit:4;stroke-opacity:1;stroke-dasharray:none" /></g></g></g></g></svg>

<?xml version="1.0" encoding="UTF-8" standalone="no"?>
<!-- Created with Inkscape (http://www.inkscape.org/) -->

<svg
   xmlns:dc="http://purl.org/dc/elements/1.1/"
   xmlns:cc="http://creativecommons.org/ns#"
   xmlns:rdf="http://www.w3.org/1999/02/22-rdf-syntax-ns#"
   xmlns:svg="http://www.w3.org/2000/svg"
   xmlns="http://www.w3.org/2000/svg"
   xmlns:sodipodi="http://sodipodi.sourceforge.net/DTD/sodipodi-0.dtd"
   xmlns:inkscape="http://www.inkscape.org/namespaces/inkscape"
   version="1.1"
   width="125"
   height="125"
   id="svg2"
   xml:space="preserve"
   sodipodi:docname="165.svg"
   inkscape:version="0.92.5 (2060ec1f9f, 2020-04-08)"><sodipodi:namedview
     pagecolor="#ffffff"
     bordercolor="#666666"
     borderopacity="1"
     objecttolerance="10"
     gridtolerance="10"
     guidetolerance="10"
     inkscape:pageopacity="0"
     inkscape:pageshadow="2"
     inkscape:window-width="1920"
     inkscape:window-height="1017"
     id="namedview871"
     showgrid="false"
     showguides="true"
     inkscape:guide-bbox="true"
     inkscape:zoom="5.0379253"
     inkscape:cx="50.516826"
     inkscape:cy="66.790985"
     inkscape:window-x="-8"
     inkscape:window-y="-8"
     inkscape:window-maximized="1"
     inkscape:current-layer="svg2"><sodipodi:guide
       position="63.121221,85.352595"
       orientation="1,0"
       id="guide1416"
       inkscape:locked="false" /><sodipodi:guide
       position="111.55386,60.937783"
       orientation="0,1"
       id="guide1418"
       inkscape:locked="false" /></sodipodi:namedview><metadata
     id="metadata8"><rdf:RDF><cc:Work
         rdf:about=""><dc:format>image/svg+xml</dc:format><dc:type
           rdf:resource="http://purl.org/dc/dcmitype/StillImage" /><dc:title></dc:title></cc:Work></rdf:RDF></metadata><defs
     id="defs6"><clipPath
       id="clipPath18"><path
         d="M 0,350.938 V 0 h 566.934 v 350.938 z"
         id="path20"
         inkscape:connector-curvature="0" /></clipPath><clipPath
       id="clipPath18-5"><path
         d="M 0,0 H 566.934 V 351 H 0 Z"
         id="path20-8"
         inkscape:connector-curvature="0" /></clipPath><clipPath
       id="clipPath18-5-6"><path
         d="M 0,0 H 566.934 V 351 H 0 Z"
         id="path20-8-1"
         inkscape:connector-curvature="0" /></clipPath></defs><g
     transform="matrix(1.0863501,0,0,-0.96938251,35.502691,81.670363)"
     id="g10-2"><path
       d="M 0.94799336,34.12776 50.812444,34.317359 v -3.791973 l 5.119164,0.189598 V 4.7399664 L 50.812444,4.550368 V 0.7583944 L 0.56879601,0.9479928 Z"
       id="path3005-1"
       style="fill:#ffffff;fill-opacity:1;stroke:none"
       inkscape:connector-curvature="0" /><g
       transform="scale(0.1)"
       id="g12-4"><g
         id="g14-1"><g
           clip-path="url(#clipPath18-5-6)"
           id="g16-6"><path
             d="m 501.516,336.293 c 0,-9.594 0,-38.219 0,-38.219 0,0 39.937,0 50.691,0 0,-13.105 0,-231.9881 0,-245.1131 -10.754,0 -50.691,0 -50.691,0 0,0 0,-28.625 0,-38.2343 -14.114,0 -472.6879,0 -486.7738,0 0,13.7695 0,307.7894 0,321.5664 14.0859,0 472.6598,0 486.7738,0 z M 0,351.035 V 0 h 516.23 c 0,0 0,28.6211 0,38.2422 10.762,0 50.704,0 50.704,0 V 312.82 c 0,0 -39.942,0 -50.704,0 0,9.59 0,38.215 0,38.215 H 0"
             id="path22-7"
             style="fill:#231f20;fill-opacity:1;fill-rule:nonzero;stroke:none"
             inkscape:connector-curvature="0" /><path
             d="M 7.375,7.36328 508.867,343.66 M 7.375,343.66 508.867,7.36328"
             id="path24-9"
             style="fill:none;stroke:#231f20;stroke-width:7.27552986;stroke-linecap:butt;stroke-linejoin:miter;stroke-miterlimit:4;stroke-dasharray:none;stroke-opacity:1"
             inkscape:connector-curvature="0" /></g></g></g></g></svg>
